X:1
T:Earth, big with empires, to thy reign
T:Earth, big with empires, to thy reign (Robert Broderip)
C:Robert Broderip
Z:p84, Improved Psalmody,
Z:ed. W. D. Tattersall,
Z:London: (1794)
%%score [ 1 2 3 ]
L:1/8
M:4/4
K:A
V:1 treble nm="Soprano" snm="S."
V:2 treble nm="Alto" snm="A."
V:3 bass nm="Bass" snm="B."
V:1
 e2 ed c2 B2 | A2 (BA) G3 G | A2 c2 (FG) A2 | d2 c2 B2 z B | B2 B2 e2 (^dc) | B2 (AG) F2 z B | %6
w: On such th’Al- migh- ty|from a- * bove Shall|heap the bless- * ings|of his love, And,|purg’d from sin’s trans- *|mis- sive _ stain, Ad-|
w: Earth, big with em- pires,|to thy _ reign Sub-|mits, great God, _ its|wide do- main; What-|e’er this orb’s vast _|bounds con- * fine By|
w: Lord, who shall to thy|hill as- * cend? Who|sup- pliant at _ thine|al- tars bend? There|joy- ful find a _|sure a- * bode, And|
 B2 e2 B3 A | G2 F2 E3 E | (E>F) (G>A) B2 B2 | (A>B) (c>d) e3 e | d2 c2 c2 B2 | B2 A2 G2 z B | %12
w: mit them to his|sac- red fane. Such|on- * ly _ form the|cho- * sen _ choir Whose|feet with li- cens’d|step a- spire To|
w: just pos- sess- ion,|Lord, is thine: That|orb _ a- * mid the|wa- * t’ry _ waste Thy|hands, best Ar- chi-|tect, have placed, And|
w: own the pre- sence|of his God? Whose|hands _ and _ heart from|guilt _ are _ free, Who|ne’er to i- dols|bow’d the knee, Nor,|
 B2 B2 e2 A2 | d2 c2 B2 z e | e2 f2 (e>d c)d | c2 B2 A4 |] %16
w: vi- sit Si- on’s|blest a- bode, Who|seek the face _ _ of|Ja- cob’s God.|
w: bid th’un- fa- thom-|a- ble deep Be-|neath its firm _ _ foun-|da- tions sleep.|
w: stu- dious of de-|ceit, would try By|oaths to con- * * se-|crate a lie.|
V:2
 c2 cB A2 G2 | A2 F2 E3 E | E2 A2 F2 E2 | (FG) A2 G2 z G | G2 F2 E2 E2 | F2 (FE) ^D2 z D | %6
w: On such th’Al- migh- ty|from a- bove Shall|heap the bless- ings|of _ his love, And,|purg’d from sin’s trans-|mis- sive _ stain, Ad-|
w: Earth, big with em- pires,|to thy reign Sub-|mits, great God, its|wide _ do- main; What-|e’er this orb’s vast|bounds con- * fine By|
w: Lord, who shall to thy|hill as- cend? Who|sup- pliant at thine|al- * tars bend? There|joy- ful find a|sure a- * bode, And|
 E2 E2 E3 F | E2 ^D2 E3 E | (E>F) (E>F) G2 G2 | E2 E2 E3 A | G2 A2 F2 F2 | F2 F2 E2 z G | %12
w: mit them to his|sac- red fane. Such|on- * ly _ form the|cho- sen choir Whose|feet with li- cens’d|step a- spire To|
w: just pos- sess- ion,|Lord, is thine: That|orb _ a- * mid the|wa- t’ry waste Thy|hands, best Ar- chi-|tect, have placed, And|
w: own the pre- sence|of his God? Whose|hands _ and _ heart from|guilt are free, Who|ne’er to i- dols|bow’d the knee, Nor,|
 G2 G2 A2 A2 | G2 A2 G2 z G | A2 d2 (c>B A)B | A2 G2 A4 |] %16
w: vi- sit Si- on’s|blest a- bode, Who|seek the face _ _ of|Ja- cob’s God.|
w: bid th’un- fa- thom-|a- ble deep Be-|neath its firm _ _ foun-|da- tions sleep.|
w: stu- dious of de-|ceit, would try By|oaths to con- * * se-|crate a lie.|
V:3
 A,2 A,A, A,2 (E,>D,) | C,2 D,2 E,3 (E,/D,/) | C,2 A,,2 D,2 C,2 | B,,2 A,,2 E,2 z E, | %4
w: On such th’Al- migh- ty _|from a- bove Shall _|heap the bless- ings|of his love, And,|
w: Earth, big with em- pires, _|to thy reign Sub- *|mits, great God, its|wide do- main; What-|
w: Lord, who shall to thy _|hill as- cend? Who _|sup- pliant at thine|al- tars bend? There|
 E,2 ^D,2 C,2 C,2 | ^D,2 E,2 B,,2 z (B,,/A,,/) | G,,2 G,,2 G,,3 A,, | B,,2 B,,2 E,3 E, | %8
w: purg’d from sin’s trans-|mis- sive stain, Ad- *|mit them to his|sac- red fane. Such|
w: e’er this orb’s vast|bounds con- fine By _|just pos- sess- ion,|Lord, is thine: That|
w: joy- ful find a|sure a- bode, And _|own the pre- sence|of his God? Whose|
 E,2 E,2 D,2 D,2 | C,>D, A,,>B,, C,3 C, | B,,2 A,,2 D,2 D,2 | D,2 ^D,2 E,2 z E, | %12
w: on- ly form the|cho- * sen _ choir Whose|feet with li- cens’d|step a- spire To|
w: orb a- mid the|wa- * t’ry _ waste Thy|hands, best Ar- chi-|tect, have placed, And|
w: hands and heart from|guilt _ are _ free, Who|ne’er to i- dols|bow’d the knee, Nor,|
"^Notes: The first verse only is underlaid in the source: the other two given here are printed after the musicand have been underlaid editorially. This piece is attributed in the source to 'Mr. Rt. Broderip, of Bristol'." E,2 D,2 C,2 C,2 | %13
w: vi- sit Si- on’s|
w: bid th’un- fa- thom-|
w: stu- dious of de-|
 B,,2 A,,2 E,2 z (E,/D,/) | C,2 D,2 A,,3 D, | E,2 E,2 A,,4 |] %16
w: blest a- bode, Who _|seek the face of|Ja- cob’s God.|
w: a- ble deep Be- *|neath its firm foun-|da- tions sleep.|
w: ceit, would try By _|oaths to con- se-|crate a lie.|

